X: 51
T:Frankie Gavin's
T:The Firm Old Tune (An Shean Fonn Dur)
T:Joe Keegan's Jig
T:The Lake Shore
M:6/8
L:1/8
R:Jig
Z:Andrew Pickering, 21/4/2000
K:D
EFG A2B|=cB=c E3|DEF G2A|GED GED|EFG A2B|=cB=c EFG|ABA GFE|FDD D3:|
fdd cde|fdd d2e|f3 e2d|cAG A3|def g3|age d2=c|ABA GFE|FDD D3:|
<end>
<start>
